!!!COM: Bach, Johann Sebastian
!!!OPR: Joh. Seb. Bachs vierstimmige Choralgesänge
!!!XEN: Four-part Chorales
!!!OTL: 144. O Ewigkeit, du Donnerwort
!!!SCT: BWV 397
!!!SCA: Thematisch-systematisches Verzeichnis der musikalischen Werke Johann Sebastian Bach: Bach-Werke-Verzeichnis (Schmieder)
!!!YOR: Bach Gesellschaft Edition xxxix
!!!ENC: Steven Rasmussen
!!!CDT: 1685/3//-1750/7/28/
!!!OCY: Deutschland
!!!YEC: Copyright (c) 1994, 2000 Center for Computer Assisted Research in the Humanities
!!!YEM: Rights to all derivative editions reserved
!!!YEN: United States of America
**kern	**silbe	**kern	**silbe	**kern	**kern	**silbe
*I:[BASSO]	*I:[BASSO]	*I:[TENORE]	*I:[TENORE]	*I:[ALTO]	*I:[SOPRANO]	*I:[SOPRANO]
*>[A,A,B]	*	*>[A,A,B]	*	*>[A,A,B]	*>[A,A,B]	*
*>A	*	*>A	*	*>A	*>A	*
*clefF4	*	*clefGv2	*	*clefG2	*clefG2	*
*k[b-]	*	*k[b-]	*	*k[b-]	*k[b-]	*
*F:	*	*F:	*	*F:	*F:	*
*M4/4	*	*M4/4	*	*M4/4	*M4/4	*
=1-	=1-	=1-	=1-	=1-	=1-	=1-
4FF	OO	(4A	.	4c	(4.f	OO
2F	E-E-	4B-)	.	8dL	.	.
.	.	.	.	8eJ	8g)	.
.	.	4c	.	4f	4a	E-E-
4D	-wig--wig-	4d	.	4f	4b-	-wig--wig-
=2	=2	=2	=2	=2	=2	=2
4AA	-keit,-keit,	4c	.	8fL	4cc	-keit,-keit,
.	.	.	.	8gJ	.	.
4A	.	4f	.	4a	4cc	duZeit
4Bn	.	8fL	.	8aL	4dd	Don-oh-
.	.	8gJ	.	8gJ	.	.
8c#L	.	8gL	.	8b-L	4ee	-ner--ne
8AJ	.	8c#J	.	8aJ	.	.
=3	=3	=3	=3	=3	=3	=3
2d;	.	2d;	.	2f;	2ff;	-wort!Zeit!
2D	.	4A	.	4.d	4.f	OIch
.	.	4B-	.	.	.	.
.	.	.	.	8e	8g	.
=4	=4	=4	=4	=4	=4	=4
4d	.	4A	.	4f	4a	Schwert,weiss
8cL	.	4d	.	4g	4b-	dasvor
8B-J	.	.	.	.	.	.
8AL	.	4e-	.	8f#L	4cc	durchgro-
8GJ	.	.	.	8gJ	.	.
8F#L	.	4d	.	4a	4cc	die-sser
8DJ	.	.	.	.	.	.
=5	=5	=5	=5	=5	=5	=5
4G	.	4d	.	8aL	4b-	See-Trau-
.	.	.	.	8gJ	.	.
8AL	.	8cL	.	8gL	4a	-le-rig-
8B-J	.	8dJ	.	8fJ	.	.
2c;	.	2e;	.	2c;	2g;	bohrt!-keit
=6	=6	=6	=6	=6	=6	=6
2F	.	4f	.	2c	2a	Onicht,
.	.	4e-	.	.	.	.
8B-L	.	4d	.	8dL	4f	An-wo
8cJ	.	.	.	8eJ	.	.
8B-L	.	8dL	.	4f	4f	-fangich
8AJ	.	8cJ	.	.	.	.
=7	=7	=7	=7	=7	=7	=7
4G	.	8B-L	.	8fL	4b-	son-mich
.	.	8cJ	.	8eJ	.	.
8DL	.	4d	.	4f	4a	-derhin-
8CJ	.	.	.	.	.	.
(4BB-	.	4d	.	(4f	2g	En--wen-
4C)	.	8cL	.	4e)	.	.
.	.	8B-J	.	.	.	.
=8	=8	=8	=8	=8	=8	=8
1FF;	.	1A;	.	1c;	1f;	-de!-de.
=9:|!	=9:|!	=9:|!	=9:|!	=9:|!	=9:|!	=9:|!
*>B	*	*>B	*	*>B	*>B	*
4.A	Nimm	8AL	Nimm	2f	2cc	Nimm
.	.	8B-J	.	.	.	.
.	.	2c	du	.	.	.
8B-	.	.	.	.	.	.
4c	du	.	.	8fL	4g	du
.	.	.	.	8eJ	.	.
4F#	mich,	4c	mich,	8e-L	4a	mich,
.	.	.	.	8dJ	.	.
=10	=10	=10	=10	=10	=10	=10
8GL	.	4B-	.	4d	4b-	wenn
8FJ	.	.	.	.	.	.
8E-L	.	4B-	.	4g	4b-	es
8DJ	.	.	.	.	.	.
4C	.	4e-	.	4g	4.a	dir
4D	.	8.dL	.	4f#	.	.
.	.	.	.	.	8g	ge-
.	.	16cJk	.	.	.	.
=11	=11	=11	=11	=11	=11	=11
2GG;	.	2B-;	.	2d;	2g;	-fÃ¤llt,
2AA	Herr	8AL	Herr	4.f	2cc	Herr
.	.	8cJ	.	.	.	.
.	.	[4f	Je-	.	.	.
.	.	.	.	8e-	.	.
=12	=12	=12	=12	=12	=12	=12
8BB-L	Je-	4f]	.	8dL	4dd	Je-
8B-J	.	.	.	8fJ	.	.
8AL	-su,	4g	-su,	4b-	4ee	-su,
8GJ	.	.	.	.	.	.
8dL	.	8fL	.	8aL	4ff	in
8DJ	.	8eJ	.	8gJ	.	.
8dL	.	4d	.	4f	4a	dein
8cJ	.	.	.	.	.	.
=13	=13	=13	=13	=13	=13	=13
8B-L	.	4d	.	4f	4.g	Freu-
8GJ	.	.	.	.	.	.
8cL	.	8cL	.	4e	.	.
8CJ	.	8B-J	.	.	8g	-den-
2F;	.	2A;	.	2c;	2f;	-zelt.
==|!	==|!	==|!	==|!	==|!	==|!	==|!
*-	*-	*-	*-	*-	*-	*-
!!!RWG: Key is interpreted using the Humdrum key tool.
!!!URL-pdf: https://s9.imslp.org/files/imglnks/usimg/6/6b/IMSLP24489-PMLP09471-CCARH_Bach_Chorales.pdf#page=101 Musedata edition
!!!URL-pdf: https://s9.imslp.org/files/imglnks/usimg/7/7a/IMSLP04155-Bach_-_BGA_253-438.pdf#page=79 	Bach-Gesellschaft Ausgabe, Band 39 (pp.175-276) Leipzig: Breitkopf und Härtel, 1892. Plate B.W. XXXIX.
!!!END: 1994/07/27
!!!EMD: Converted from MuseData to Humdrum Dec 19, 2000, by Andreas Kornstaedt using muse2kern.
!!!EED: Craig Stuart Sapp
!!!EEV: 2024/03/31
!!!filter-keyboard: satb2gs
!!!title: @{OTL} (@{SCT})
